packages/core/src/svgs/tokens/branded/MARSH.svg

<svg width="24" height="24" viewBox="0 0 24 24" fill="none" xmlns="http://www.w3.org/2000/svg">
<path d="M8.87499 8.81246L7 7.71249V13.8749C7 16.2937 9.23747 18.2499 12 18.2499C14.7625 18.2499 17 16.2937 17 13.8749V5.125H10.1562L13.3874 6.93748H15.125V13.8749C15.125 15.25 13.725 16.3749 12 16.3749C10.2749 16.3749 8.87499 15.25 8.87499 13.8749V8.81246ZM5.12499 6.6125V14.8125C5.12499 17.75 8.2 20.125 12 20.125C15.8 20.125 18.875 17.75 18.875 14.8125V3.87499H7.92499L4.575 2H20.75V14.5C20.75 18.6437 16.8313 22 12 22C7.16874 22 3.25 18.6437 3.25 14.5V5.51249L5.12499 6.6125Z" fill="#34D399"/>
</svg>

<svg xmlns="http://www.w3.org/2000/svg" width="24" height="24" fill="none" viewBox="0 0 24 24">
    <path fill="#34D399" d="M8.875 8.812 7 7.712v6.163c0 2.419 2.237 4.375 5 4.375s5-1.956 5-4.375v-8.75h-6.844l3.231 1.812h1.738v6.938c0 1.375-1.4 2.5-3.125 2.5s-3.125-1.125-3.125-2.5zm-3.75-2.2v8.2c0 2.938 3.075 5.313 6.875 5.313s6.875-2.375 6.875-5.312V3.874H7.925L4.575 2H20.75v12.5c0 4.144-3.919 7.5-8.75 7.5s-8.75-3.356-8.75-7.5V5.512z"/>
</svg>
